src/components/icons/SoldOutIcon.svg

<svg width="148" height="54" viewBox="0 0 148 54" fill="none" xmlns="http://www.w3.org/2000/svg" xmlns:xlink="http://www.w3.org/1999/xlink">
<rect width="148" height="54" rx="8" fill="#EF7132"/>
<rect width="148" height="54" rx="8" fill="url(#pattern0)" fill-opacity="0.1"/>
<path d="M23.584 35.168C22.352 35.168 21.248 34.968 20.272 34.568C19.296 34.168 18.512 33.576 17.92 32.792C17.344 32.008 17.04 31.064 17.008 29.96H21.376C21.44 30.584 21.656 31.064 22.024 31.4C22.392 31.72 22.872 31.88 23.464 31.88C24.072 31.88 24.552 31.744 24.904 31.472C25.256 31.184 25.432 30.792 25.432 30.296C25.432 29.88 25.288 29.536 25 29.264C24.728 28.992 24.384 28.768 23.968 28.592C23.568 28.416 22.992 28.216 22.24 27.992C21.152 27.656 20.264 27.32 19.576 26.984C18.888 26.648 18.296 26.152 17.8 25.496C17.304 24.84 17.056 23.984 17.056 22.928C17.056 21.36 17.624 20.136 18.76 19.256C19.896 18.36 21.376 17.912 23.2 17.912C25.056 17.912 26.552 18.36 27.688 19.256C28.824 20.136 29.432 21.368 29.512 22.952H25.072C25.04 22.408 24.84 21.984 24.472 21.68C24.104 21.36 23.632 21.2 23.056 21.2C22.56 21.2 22.16 21.336 21.856 21.608C21.552 21.864 21.4 22.24 21.4 22.736C21.4 23.28 21.656 23.704 22.168 24.008C22.68 24.312 23.48 24.64 24.568 24.992C25.656 25.36 26.536 25.712 27.208 26.048C27.896 26.384 28.488 26.872 28.984 27.512C29.48 28.152 29.728 28.976 29.728 29.984C29.728 30.944 29.48 31.816 28.984 32.6C28.504 33.384 27.8 34.008 26.872 34.472C25.944 34.936 24.848 35.168 23.584 35.168ZM39.9816 35.168C38.3976 35.168 36.9416 34.8 35.6136 34.064C34.3016 33.328 33.2536 32.304 32.4696 30.992C31.7016 29.664 31.3176 28.176 31.3176 26.528C31.3176 24.88 31.7016 23.4 32.4696 22.088C33.2536 20.776 34.3016 19.752 35.6136 19.016C36.9416 18.28 38.3976 17.912 39.9816 17.912C41.5656 17.912 43.0136 18.28 44.3256 19.016C45.6536 19.752 46.6936 20.776 47.4456 22.088C48.2136 23.4 48.5976 24.88 48.5976 26.528C48.5976 28.176 48.2136 29.664 47.4456 30.992C46.6776 32.304 45.6376 33.328 44.3256 34.064C43.0136 34.8 41.5656 35.168 39.9816 35.168ZM39.9816 31.424C41.3256 31.424 42.3976 30.976 43.1976 30.08C44.0136 29.184 44.4216 28 44.4216 26.528C44.4216 25.04 44.0136 23.856 43.1976 22.976C42.3976 22.08 41.3256 21.632 39.9816 21.632C38.6216 21.632 37.5336 22.072 36.7176 22.952C35.9176 23.832 35.5176 25.024 35.5176 26.528C35.5176 28.016 35.9176 29.208 36.7176 30.104C37.5336 30.984 38.6216 31.424 39.9816 31.424ZM54.7448 31.832H60.1208V35H50.6408V18.152H54.7448V31.832ZM68.1503 18.152C69.9263 18.152 71.4783 18.504 72.8063 19.208C74.1343 19.912 75.1583 20.904 75.8783 22.184C76.6143 23.448 76.9823 24.912 76.9823 26.576C76.9823 28.224 76.6143 29.688 75.8783 30.968C75.1583 32.248 74.1263 33.24 72.7823 33.944C71.4543 34.648 69.9103 35 68.1503 35H61.8383V18.152H68.1503ZM67.8863 31.448C69.4383 31.448 70.6463 31.024 71.5103 30.176C72.3743 29.328 72.8063 28.128 72.8063 26.576C72.8063 25.024 72.3743 23.816 71.5103 22.952C70.6463 22.088 69.4383 21.656 67.8863 21.656H65.9423V31.448H67.8863ZM91.8498 35.168C90.2658 35.168 88.8098 34.8 87.4818 34.064C86.1698 33.328 85.1218 32.304 84.3378 30.992C83.5698 29.664 83.1858 28.176 83.1858 26.528C83.1858 24.88 83.5698 23.4 84.3378 22.088C85.1218 20.776 86.1698 19.752 87.4818 19.016C88.8098 18.28 90.2658 17.912 91.8498 17.912C93.4338 17.912 94.8818 18.28 96.1938 19.016C97.5218 19.752 98.5618 20.776 99.3138 22.088C100.082 23.4 100.466 24.88 100.466 26.528C100.466 28.176 100.082 29.664 99.3138 30.992C98.5458 32.304 97.5058 33.328 96.1938 34.064C94.8818 34.8 93.4338 35.168 91.8498 35.168ZM91.8498 31.424C93.1938 31.424 94.2658 30.976 95.0658 30.08C95.8818 29.184 96.2898 28 96.2898 26.528C96.2898 25.04 95.8818 23.856 95.0658 22.976C94.2658 22.08 93.1938 21.632 91.8498 21.632C90.4898 21.632 89.4018 22.072 88.5858 22.952C87.7858 23.832 87.3858 25.024 87.3858 26.528C87.3858 28.016 87.7858 29.208 88.5858 30.104C89.4018 30.984 90.4898 31.424 91.8498 31.424ZM106.541 18.152V28.232C106.541 29.24 106.789 30.016 107.285 30.56C107.781 31.104 108.509 31.376 109.469 31.376C110.429 31.376 111.165 31.104 111.677 30.56C112.189 30.016 112.445 29.24 112.445 28.232V18.152H116.549V28.208C116.549 29.712 116.229 30.984 115.589 32.024C114.949 33.064 114.085 33.848 112.997 34.376C111.925 34.904 110.725 35.168 109.397 35.168C108.069 35.168 106.877 34.912 105.821 34.4C104.781 33.872 103.957 33.088 103.349 32.048C102.741 30.992 102.437 29.712 102.437 28.208V18.152H106.541ZM131.311 18.152V21.44H126.847V35H122.743V21.44H118.279V18.152H131.311Z" fill="white"/>
<defs>
<pattern id="pattern0" patternContentUnits="objectBoundingBox" width="0.155405" height="0.425926">
<use xlink:href="#image0" transform="scale(0.00194257 0.00532407)"/>
</pattern>
<image id="image0" width="80" height="80" xlink:href="data:image/png;base64,iVBORw0KGgoAAAANSUhEUgAAAFAAAABQCAYAAACOEfKtAAAACXBIWXMAABYlAAAWJQFJUiTwAAAAAXNSR0IArs4c6QAAAARnQU1BAACxjwv8YQUAAAG3SURBVHgB7dM5bgNBDETRaSWGT2351l6CkUoCJAxm67251I8YEg9kmAT3+z9/zfN0nYR23+07TELTgPf5Ea4iAbXgYRYHqAkPiQLUhofEAGrEQyIAteKh4YCa8dBQQO14aBigBTw0BNAKHuoOaAkPdQW0hoe6AVrEQ10AreKh5oCW8VBTQOt4qBmgBzzUBNALHqoO6AkPVQX0hoeqAXrEQ1UAveKhYkDPeKgI0DseygYk3rMsQOK9SwYk3rIkQOKtiwYk3nZRgMTb7xSQeMcdAhLvvF1A4sW1CUi8+FaAxEtrAUi89F6AxMvrAUi8/ALxygo/f/cVhSYdD8d3mYSmAQ+fKxJQCx5mcYCa8JAoQG14SAygRjwkAlArHhoOqBkPDQXUjoeGAVrAQ0MAreCh7oCW8FBXQGt4qBugRTzUBdAqHmoOaBkPNQW0joeaAXrAQ00AveCh6oCe8FBVQG94qBqgRzxUBdArHioG9IyHigC946FsQOI9ywIk3rtkQOItSwIk3rpoQOJtFwVIvP1OAYl33CEg8c7bBSReXJuAxItvBUi8tBaAxEvvBUi8vB6AxMvvQryybk1J0XcRscBSAAAAAElFTkSuQmCC"/>
</defs>
</svg>

<svg width="148" height="54" fill="none" xmlns="http://www.w3.org/2000/svg" xmlns:xlink="http://www.w3.org/1999/xlink"><rect width="148" height="54" rx="8" fill="#EF7132"/><rect width="148" height="54" rx="8" fill="url(#pattern0)" fill-opacity=".1"/><path d="M23.584 35.168c-1.232 0-2.336-.2-3.312-.6-.976-.4-1.76-.992-2.352-1.776-.576-.784-.88-1.728-.912-2.832h4.368c.064.624.28 1.104.648 1.44.368.32.848.48 1.44.48.608 0 1.088-.136 1.44-.408.352-.288.528-.68.528-1.176 0-.416-.144-.76-.432-1.032a3.203 3.203 0 00-1.032-.672c-.4-.176-.976-.376-1.728-.6-1.088-.336-1.976-.672-2.664-1.008a4.922 4.922 0 01-1.776-1.488c-.496-.656-.744-1.512-.744-2.568 0-1.568.568-2.792 1.704-3.672 1.136-.896 2.616-1.344 4.44-1.344 1.856 0 3.352.448 4.488 1.344 1.136.88 1.744 2.112 1.824 3.696h-4.44c-.032-.544-.232-.968-.6-1.272-.368-.32-.84-.48-1.416-.48-.496 0-.896.136-1.2.408-.304.256-.456.632-.456 1.128 0 .544.256.968.768 1.272.512.304 1.312.632 2.4.984 1.088.368 1.968.72 2.64 1.056.688.336 1.28.824 1.776 1.464s.744 1.464.744 2.472c0 .96-.248 1.832-.744 2.616-.48.784-1.184 1.408-2.112 1.872-.928.464-2.024.696-3.288.696zm16.398 0c-1.584 0-3.04-.368-4.368-1.104a8.393 8.393 0 01-3.144-3.072c-.768-1.328-1.152-2.816-1.152-4.464 0-1.648.384-3.128 1.152-4.44a8.393 8.393 0 013.144-3.072c1.328-.736 2.784-1.104 4.368-1.104 1.584 0 3.032.368 4.344 1.104a7.998 7.998 0 013.12 3.072c.768 1.312 1.152 2.792 1.152 4.44 0 1.648-.384 3.136-1.152 4.464a8.216 8.216 0 01-3.12 3.072c-1.312.736-2.76 1.104-4.344 1.104zm0-3.744c1.344 0 2.416-.448 3.216-1.344.816-.896 1.224-2.08 1.224-3.552 0-1.488-.408-2.672-1.224-3.552-.8-.896-1.872-1.344-3.216-1.344-1.36 0-2.448.44-3.264 1.32-.8.88-1.2 2.072-1.2 3.576 0 1.488.4 2.68 1.2 3.576.816.88 1.904 1.32 3.264 1.32zm14.763.408h5.376V35h-9.48V18.152h4.104v13.68zm13.405-13.68c1.776 0 3.328.352 4.656 1.056 1.328.704 2.352 1.696 3.072 2.976.736 1.264 1.104 2.728 1.104 4.392 0 1.648-.368 3.112-1.104 4.392-.72 1.28-1.752 2.272-3.096 2.976C71.454 34.648 69.91 35 68.15 35h-6.312V18.152h6.312zm-.264 13.296c1.552 0 2.76-.424 3.624-1.272.864-.848 1.296-2.048 1.296-3.6s-.432-2.76-1.296-3.624c-.864-.864-2.072-1.296-3.624-1.296h-1.944v9.792h1.944zm23.964 3.72c-1.584 0-3.04-.368-4.368-1.104a8.393 8.393 0 01-3.144-3.072c-.768-1.328-1.152-2.816-1.152-4.464 0-1.648.384-3.128 1.152-4.44a8.393 8.393 0 013.144-3.072c1.328-.736 2.784-1.104 4.368-1.104 1.584 0 3.032.368 4.344 1.104a7.998 7.998 0 013.12 3.072c.768 1.312 1.152 2.792 1.152 4.44 0 1.648-.384 3.136-1.152 4.464a8.216 8.216 0 01-3.12 3.072c-1.312.736-2.76 1.104-4.344 1.104zm0-3.744c1.344 0 2.416-.448 3.216-1.344.816-.896 1.224-2.08 1.224-3.552 0-1.488-.408-2.672-1.224-3.552-.8-.896-1.872-1.344-3.216-1.344-1.36 0-2.448.44-3.264 1.32-.8.88-1.2 2.072-1.2 3.576 0 1.488.4 2.68 1.2 3.576.816.88 1.904 1.32 3.264 1.32zm14.691-13.272v10.08c0 1.008.248 1.784.744 2.328.496.544 1.224.816 2.184.816.96 0 1.696-.272 2.208-.816.512-.544.768-1.32.768-2.328v-10.08h4.104v10.056c0 1.504-.32 2.776-.96 3.816a6.13 6.13 0 01-2.592 2.352c-1.072.528-2.272.792-3.6.792-1.328 0-2.52-.256-3.576-.768-1.04-.528-1.864-1.312-2.472-2.352-.608-1.056-.912-2.336-.912-3.84V18.152h4.104zm24.77 0v3.288h-4.464V35h-4.104V21.44h-4.464v-3.288h13.032z" fill="#fff"/><defs><pattern id="pattern0" patternContentUnits="objectBoundingBox" width=".155" height=".426"><use xlink:href="#image0" transform="scale(.00194 .00532)"/></pattern><image id="image0" width="80" height="80" xlink:href="data:image/png;base64,iVBORw0KGgoAAAANSUhEUgAAAFAAAABQCAYAAACOEfKtAAAACXBIWXMAABYlAAAWJQFJUiTwAAAAAXNSR0IArs4c6QAAAARnQU1BAACxjwv8YQUAAAG3SURBVHgB7dM5bgNBDETRaSWGT2351l6CkUoCJAxm67251I8YEg9kmAT3+z9/zfN0nYR23+07TELTgPf5Ea4iAbXgYRYHqAkPiQLUhofEAGrEQyIAteKh4YCa8dBQQO14aBigBTw0BNAKHuoOaAkPdQW0hoe6AVrEQ10AreKh5oCW8VBTQOt4qBmgBzzUBNALHqoO6AkPVQX0hoeqAXrEQ1UAveKhYkDPeKgI0DseygYk3rMsQOK9SwYk3rIkQOKtiwYk3nZRgMTb7xSQeMcdAhLvvF1A4sW1CUi8+FaAxEtrAUi89F6AxMvrAUi8/ALxygo/f/cVhSYdD8d3mYSmAQ+fKxJQCx5mcYCa8JAoQG14SAygRjwkAlArHhoOqBkPDQXUjoeGAVrAQ0MAreCh7oCW8FBXQGt4qBugRTzUBdAqHmoOaBkPNQW0joeaAXrAQ00AveCh6oCe8FBVQG94qBqgRzxUBdArHioG9IyHigC946FsQOI9ywIk3rtkQOItSwIk3rpoQOJtFwVIvP1OAYl33CEg8c7bBSReXJuAxItvBUi8tBaAxEvvBUi8vB6AxMvvQryybk1J0XcRscBSAAAAAElFTkSuQmCC"/></defs></svg>
